Obsidian/places/16/mail-message.svg

<svg viewBox="0 0 16 16" xmlns="http://www.w3.org/2000/svg"><path d="m3 2v1 3h-1-1v1 6 1h14v-1-7h-1.986328v-.4140625l-.013672.0136719v-2.5996094-1zm1 1h8v3.5996094l-.400391.4003906h-.013671l-3.585938 3.585938-3.5859375-3.585938-.4140625-.4140625zm1 1v1h6v-1zm0 2v1h6v-1zm-3 1h1l2 2 .7070312.7070312 2.2929688 2.2929688 2.292969-2.2929688.707031-.7070312 2-2h.013672.986328v6h-12z" fill="#f2f2f2"/></svg>

<svg xmlns="http://www.w3.org/2000/svg" viewBox="0 0 16 16">
  <defs id="defs3051">
    <style type="text/css" id="current-color-scheme">
      .ColorScheme-Text {
        color:#f2f2f2;
      }
      </style>
  </defs>
    <path 
        style="fill:currentColor;fill-opacity:1;stroke:none" 
        d="M 3 2 L 3 3 L 3 6 L 2 6 L 1 6 L 1 7 L 1 13 L 1 14 L 15 14 L 15 13 L 15 6 L 13.013672 6 L 13.013672 5.5859375 L 13 5.5996094 L 13 3 L 13 2 L 3 2 z M 4 3 L 12 3 L 12 6.5996094 L 11.599609 7 L 11.585938 7 L 8 10.585938 L 4.4140625 7 L 4 6.5859375 L 4 3 z M 5 4 L 5 5 L 11 5 L 11 4 L 5 4 z M 5 6 L 5 7 L 11 7 L 11 6 L 5 6 z M 2 7 L 3 7 L 5 9 L 5.7070312 9.7070312 L 8 12 L 10.292969 9.7070312 L 11 9 L 13 7 L 13.013672 7 L 14 7 L 14 13 L 2 13 L 2 7 z " 
          class="ColorScheme-Text"/>
</svg>
